papirus/16x16/apps/r.svg

<svg height="16" viewBox="0 0 16 16" width="16" xmlns="http://www.w3.org/2000/svg"><g transform="translate(0 -1036.3622)"><circle cx="8" cy="1044.3622" fill="#ccc" r="7.9999952"/><path d="m8 2a6.9999998 4.9999826 0 0 0 -7 5 6.9999998 4.9999826 0 0 0  7 5 6.9999998 4.9999826 0 0 0  7-5 6.9999998 4.9999826 0 0 0 -7-5zm1 1a5.0000002 3.9999906 0 0 1 5 4 5.0000002 3.9999906 0 0 1 -5 4 5.0000002 3.9999906 0 0 1 -5-4 5.0000002 3.9999906 0 0 1  5-4z" opacity=".2" transform="translate(0 1036.3622)"/><path d="m12.199996 1045.2193c0 0 .221223-.063.441857.049.07656.039.209017.1173.304565.2198.09359.1005.139226.2022.139226.2022l.914356 2.6717h-2.5c0 0-.567048-1.8662-1.164621-2.6651-.118901-.097-.219002-.3513-.3353809-.3347h-1.0001712l.0003463 2.9983h-2.0001732v-7.9985h4.330569c.469428 0 2.100004.5002 2.169431 2.5002-.06943 2-1.300004 2.3569-1.300004 2.3569zm-3.1998228-2.8576v1.5005h1.9998238c0 0 .515859-.044.500003-.8-.01506-.7177-.500003-.6995-.500003-.6995z" fill="#1e62b2" fill-rule="evenodd"/></g></svg>

<?xml version="1.0" encoding="UTF-8" standalone="no"?>
<!-- Created with Inkscape (http://www.inkscape.org/) -->

<svg
   xmlns:dc="http://purl.org/dc/elements/1.1/"
   xmlns:cc="http://creativecommons.org/ns#"
   xmlns:rdf="http://www.w3.org/1999/02/22-rdf-syntax-ns#"
   xmlns:svg="http://www.w3.org/2000/svg"
   xmlns="http://www.w3.org/2000/svg"
   xmlns:sodipodi="http://sodipodi.sourceforge.net/DTD/sodipodi-0.dtd"
   xmlns:inkscape="http://www.inkscape.org/namespaces/inkscape"
   width="16"
   height="16"
   viewBox="0 0 16 16"
   id="svg4184"
   version="1.1"
   inkscape:version="0.91 r13725"
   sodipodi:docname="r.svg">
  <defs
     id="defs4186" />
  <sodipodi:namedview
     id="base"
     pagecolor="#ffffff"
     bordercolor="#666666"
     borderopacity="1.0"
     inkscape:pageopacity="0.0"
     inkscape:pageshadow="2"
     inkscape:zoom="1"
     inkscape:cx="10.09272"
     inkscape:cy="5.6864549"
     inkscape:document-units="px"
     inkscape:current-layer="layer1"
     showgrid="false"
     units="px"
     inkscape:window-width="1600"
     inkscape:window-height="849"
     inkscape:window-x="0"
     inkscape:window-y="0"
     inkscape:window-maximized="1">
    <inkscape:grid
       type="xygrid"
       id="grid4770" />
  </sodipodi:namedview>
  <metadata
     id="metadata4189">
    <rdf:RDF>
      <cc:Work
         rdf:about="">
        <dc:format>image/svg+xml</dc:format>
        <dc:type
           rdf:resource="http://purl.org/dc/dcmitype/StillImage" />
        <dc:title></dc:title>
      </cc:Work>
    </rdf:RDF>
  </metadata>
  <g
     inkscape:label="Layer 1"
     inkscape:groupmode="layer"
     id="layer1"
     transform="translate(0,-1036.3622)">
    <circle
       style="opacity:1;fill:#cccccc;fill-opacity:1;stroke:none;stroke-width:2;stroke-miterlimit:4;stroke-dasharray:none;stroke-opacity:1"
       id="path4520"
       cx="8"
       cy="1044.3622"
       r="7.9999952" />
    <path
       style="opacity:0.2;fill:#000000;fill-opacity:1;stroke:none;stroke-width:0.5;stroke-linecap:round;stroke-linejoin:round;stroke-miterlimit:4;stroke-dasharray:none;stroke-opacity:1"
       d="M 8 2 A 6.9999998 4.9999826 0 0 0 1 7 A 6.9999998 4.9999826 0 0 0 8 12 A 6.9999998 4.9999826 0 0 0 15 7 A 6.9999998 4.9999826 0 0 0 8 2 z M 9 3 A 5.0000002 3.9999906 0 0 1 14 7 A 5.0000002 3.9999906 0 0 1 9 11 A 5.0000002 3.9999906 0 0 1 4 7 A 5.0000002 3.9999906 0 0 1 9 3 z "
       transform="translate(0,1036.3622)"
       id="path4218" />
    <path
       id="path3647"
       d="m 12.199996,1045.2193 c 0,0 0.221223,-0.063 0.441857,0.049 0.07656,0.039 0.209017,0.1173 0.304565,0.2198 0.09359,0.1005 0.139226,0.2022 0.139226,0.2022 L 14,1048.362 l -2.5,0 c 0,0 -0.567048,-1.8662 -1.164621,-2.6651 -0.118901,-0.097 -0.219002,-0.3513 -0.3353809,-0.3347 l -1.0001712,0 3.463e-4,2.9983 -2.0001732,0 0,-7.9985 4.330569,0 c 0.469428,0 2.100004,0.5002 2.169431,2.5002 -0.06943,2 -1.300004,2.3569 -1.300004,2.3569 z m -3.1998228,-2.8576 0,1.5005 1.9998238,0 c 0,0 0.515859,-0.044 0.500003,-0.8 -0.01506,-0.7177 -0.500003,-0.6995 -0.500003,-0.6995 z"
       inkscape:connector-curvature="0"
       style="display:inline;fill:#1e62b2;fill-opacity:1;fill-rule:evenodd;enable-background:new"
       sodipodi:nodetypes="cscccccscccccccccccscc" />
  </g>
</svg>
